X:149
T: WIE IN DEM FRUEHLING UND SO IM SOMMER
N: E0731C
O: Europa, Mitteleuropa, Deutschland, Hesssen, Dillkreis, Schwalbach
R: Liebes - Lied, Leid, Klage, Tod
M: 3/4
L: 1/16
K: E
E2E2G2 | B4A2G2A2c2 | c4B2
E2E2G2 | B4A2G2A2c2 | c4B2
B2B2cd | e4d2f2edc2 | B4z2
e2c2B2 | G4B4c2B2 | G6

